X:124
T: OH WIE SANFT RUH ICH HIER
N: B0614
O: Europa, Mitteleuropa, Deutschland, Kuestrin
R: Staende -, Hirten - Lied
M: 3/8
L: 1/16
K: G
 | d2c2B2 | A2F2G2 |
E2F2G2 | A6 |
D2d2d2 | d2cBc2 |
D2c2c2 | c2BAB2 |
ABcABG | A6 |
AGF2G2 | A2F2G2 |
A2A2B2 | c6 |
edcBA2 | ccBAG2 |
AcB2A2 | G4z2

@@@ Tune index: 2342
